_inc/systems/logos/sfc.svg

<?xml version="1.0" encoding="utf-8"?>
<svg version="1.1" viewBox="0 0 264 50" xmlns="http://www.w3.org/2000/svg">
  <g transform="matrix(0.44, 0, 0, 0.44245, 0, 0)">
    <path d="M 438.72 66.222 L 430.248 66.222 L 430.248 37.572 C 430.248 37.572 451.452 37.572 461.442 37.572 C 466.833 37.572 471.042 41.394 471.189 46.791 L 471.189 66.222 L 463.191 66.222 C 463.191 66.222 463.191 53.877 463.191 48.414 C 463.191 45.765 461.631 43.932 459.006 43.689 C 457.563 43.557 456.105 43.665 454.542 43.665 C 454.542 51.153 454.542 66.222 454.542 66.222 L 446.172 66.222 C 446.172 66.222 446.172 51.108 446.172 43.509 C 443.661 43.509 441.252 43.509 438.72 43.509 C 438.72 50.985 438.72 66.222 438.72 66.222 Z" style="fill: rgb(255, 255, 255);"/>
    <path d="M 567.528 66.222 L 559.056 66.222 L 559.056 37.572 C 559.056 37.572 580.26 37.572 590.25 37.572 C 595.641 37.572 599.85 41.394 600 46.791 L 600 66.222 L 591.999 66.222 C 591.999 66.222 591.999 53.877 591.999 48.414 C 591.999 45.765 590.442 43.932 587.814 43.689 C 586.374 43.557 584.913 43.665 583.353 43.665 C 583.353 51.153 583.353 66.222 583.353 66.222 L 574.98 66.222 C 574.98 66.222 574.98 51.108 574.98 43.509 C 572.469 43.509 570.06 43.509 567.528 43.509 C 567.528 50.985 567.528 66.222 567.528 66.222 Z" style="fill: rgb(255, 255, 255);"/>
    <path d="M 336.168 55.293 C 338.874 58.863 341.685 62.562 344.457 66.222 C 341.274 66.222 334.944 66.222 334.944 66.222 L 327.657 55.599 L 319.554 55.599 C 319.554 55.599 319.554 62.691 319.554 66.222 C 316.71 66.222 313.998 66.222 311.208 66.222 C 311.208 56.781 311.208 47.106 311.208 37.572 C 311.613 37.572 312.015 37.572 312.42 37.572 C 319.716 37.572 327.009 37.569 334.305 37.572 C 340.251 37.575 344.508 42.933 343.314 48.711 C 342.654 51.903 340.602 53.862 337.575 54.882 C 337.155 55.023 336.729 55.134 336.168 55.293 Z M 319.575 50.457 C 323.274 50.457 330.582 50.457 330.582 50.457 C 331.158 50.448 331.758 50.199 332.301 49.968 C 333.513 49.452 334.353 48.624 334.359 47.184 C 334.362 45.66 333.804 44.445 332.334 43.89 C 331.512 43.578 330.6 43.386 329.724 43.371 L 319.572 43.371 C 319.575 43.371 319.575 48.132 319.575 50.457 Z" style="fill: rgb(255, 255, 255);"/>
    <path d="M 425.508 66.21 L 404.235 66.21 C 402.654 66.189 401.022 65.904 399.516 65.43 C 395.592 64.197 393.54 61.101 393.771 57.099 C 394.008 53.004 396.594 49.86 400.479 49.029 C 401.385 48.834 402.33 48.738 403.257 48.732 L 416.829 48.732 C 417.201 48.732 416.457 48.732 416.829 48.732 C 416.781 45.606 414.201 43.077 410.898 43.065 L 396.06 43.065 L 396.06 37.572 L 413.421 37.572 C 420.09 37.572 425.304 42.561 425.508 49.209 L 425.508 66.213 L 425.508 66.213 Z M 417.096 54.123 C 413.598 54.123 410.142 54.123 406.686 54.123 C 404.478 54.123 402.981 55.443 402.945 57.411 C 402.915 59.322 404.358 60.588 406.602 60.591 L 417.096 60.591 C 417.096 60.591 417.096 56.424 417.096 54.123 Z" style="fill: rgb(255, 255, 255);"/>
    <path d="M 174.711 66.21 L 174.711 60.585 L 193.449 60.585 C 195.177 60.585 196.233 59.724 196.605 58.026 C 196.878 56.775 196.092 55.491 194.583 54.933 C 193.896 54.678 193.134 54.534 192.405 54.525 L 180.849 54.525 C 176.133 54.456 173.379 51.651 172.956 46.665 C 172.626 42.783 175.485 38.349 179.358 37.575 C 179.358 37.575 196.029 37.575 204.006 37.575 C 204.006 39.297 204.006 41.529 204.006 43.347 C 203.613 43.347 203.217 43.347 202.818 43.347 C 197.322 43.347 191.82 43.341 186.324 43.35 C 185.805 43.353 185.277 43.395 184.767 43.488 C 183.474 43.731 182.514 44.526 182.28 45.774 C 182.046 46.998 182.592 48.141 183.615 48.915 C 183.93 49.152 184.44 49.266 184.863 49.269 L 197.316 49.269 C 200.403 49.356 203.304 50.148 204.873 53.184 C 207.609 58.482 205.5 66.093 197.442 66.21 L 174.711 66.21 Z" style="fill: rgb(255, 255, 255);"/>
    <path d="M 537.417 36.918 C 540.618 37.023 543.726 37.389 546.636 38.73 C 550.686 40.593 553.71 43.527 554.571 47.979 C 555.648 53.583 554.661 58.821 550.17 62.823 C 547.623 65.097 544.401 66.096 541.104 66.663 C 535.98 67.545 531.075 66.717 526.428 64.371 C 522.081 62.181 520.26 58.386 519.765 53.787 C 519.519 51.474 519.57 49.158 520.29 46.911 C 521.994 41.619 525.942 38.907 531.102 37.746 C 533.163 37.284 534.351 36.987 537.417 36.918 Z M 546.744 51.894 C 546.72 51.372 546.699 50.85 546.669 50.328 C 546.426 46.416 544.131 43.467 540.549 42.528 C 538.452 41.976 536.319 42.039 534.222 42.48 C 531.174 43.116 529.182 44.985 528.312 47.958 C 527.616 50.325 527.619 52.764 528.024 55.176 C 528.495 57.969 530.187 59.871 532.884 60.618 C 534.504 61.068 536.262 61.236 537.948 61.197 C 543.699 61.056 546.882 57.621 546.744 51.894 Z" style="fill: rgb(255, 255, 255);"/>
    <path d="M 306.699 49.062 C 306.699 50.937 306.699 52.68 306.699 54.507 C 300.042 54.507 293.433 54.507 286.824 54.507 C 286.875 57.942 289.299 60.387 292.584 60.39 C 296.847 60.396 306.552 60.393 306.552 60.393 L 306.552 66.195 L 290.484 66.195 C 282.492 65.826 277.626 60.192 277.893 52.791 C 277.98 50.352 278.142 47.949 279.051 45.648 C 281.013 40.671 285.531 37.575 290.856 37.575 C 295.719 37.575 306.705 37.575 306.705 37.575 L 306.705 43.368 C 306.705 43.368 295.857 43.335 293.241 43.347 C 290.049 43.362 287.394 45.741 286.971 49.062 C 293.535 49.062 300.09 49.062 306.699 49.062 Z" style="fill: rgb(255, 255, 255);"/>
    <path d="M 231.12 60.363 C 231.12 60.363 231.12 45.048 231.12 37.575 C 233.868 37.575 236.538 37.575 239.286 37.575 C 239.286 46.911 239.286 66.213 239.286 66.213 L 217.788 66.222 C 215.133 66.231 212.994 65.205 211.329 63.189 C 209.748 61.272 208.776 59.202 208.848 56.559 C 209.004 50.841 208.893 37.575 208.893 37.575 L 217.086 37.575 L 217.053 55.881 C 216.993 58.572 218.487 60.141 220.971 60.363 L 231.12 60.363 Z" style="fill: rgb(255, 255, 255);"/>
    <path d="M 252.156 56.538 C 252.156 59.844 252.156 63.03 252.156 66.213 C 249.468 66.213 246.864 66.213 244.188 66.213 C 244.188 56.802 244.188 37.575 244.188 37.575 L 265.932 37.575 C 269.781 37.47 273.645 40.338 274.788 44.598 C 276.459 50.814 272.121 56.508 265.644 56.535 C 261.528 56.553 257.412 56.538 253.296 56.538 C 252.966 56.538 252.639 56.538 252.156 56.538 Z M 252.426 50.964 L 263.448 50.964 C 263.892 50.958 264.381 50.676 264.768 50.415 C 265.974 49.605 266.811 47.385 266.424 46.167 C 265.818 44.268 264.606 43.353 262.605 43.347 L 252.426 43.347 L 252.426 50.964 L 252.426 50.964 Z" style="fill: rgb(255, 255, 255);"/>
    <path d="M 391.533 37.575 L 391.533 43.068 L 377.553 43.068 C 375.18 43.134 373.149 44.256 371.76 46.209 C 371.286 46.878 370.995 47.724 370.929 48.87 C 377.835 48.87 384.465 48.87 391.179 48.87 C 391.179 50.946 391.179 52.902 391.179 54.933 C 384.435 54.933 377.715 54.933 370.854 54.933 C 370.854 58.644 370.854 62.514 370.854 66.225 C 368.052 66.225 362.598 66.225 362.598 66.225 C 362.598 66.225 362.598 54.525 362.598 49.29 C 362.598 43.167 367.242 37.776 373.38 37.578 L 391.533 37.575 L 391.533 37.575 Z" style="fill: rgb(255, 255, 255);"/>
    <path d="M 517.233 60.603 L 517.233 66.222 L 502.125 66.222 C 495.864 66.222 491.1 62.541 489.576 56.448 C 488.388 51.693 488.937 46.887 491.628 42.744 C 493.866 39.3 497.148 37.584 501.273 37.575 L 517.395 37.575 L 517.395 43.242 L 503.706 43.242 C 501.021 43.242 499.293 44.484 498.402 47.019 C 497.364 49.977 497.184 53.274 498.156 56.298 C 499.056 59.1 501.198 60.603 504.135 60.603 L 517.233 60.603 Z" style="fill: rgb(255, 255, 255);"/>
    <path d="M 335.889 92.316 C 335.889 90.585 335.889 88.917 335.889 87.147 C 342.537 87.147 349.137 87.147 355.803 87.147 C 355.803 84.267 355.803 81.489 355.803 78.6 C 349.278 78.6 342.792 78.6 336.252 78.6 C 336.252 76.896 336.252 75.306 336.252 73.65 C 344.208 73.65 352.116 73.65 360.105 73.65 C 360.105 79.857 360.105 86.07 360.105 92.316 C 352.032 92.316 343.974 92.316 335.889 92.316 Z" style="fill: rgb(255, 255, 255);"/>
    <path d="M 173.628 78.474 C 173.628 76.683 173.628 75.087 173.628 73.428 C 180.276 73.428 186.873 73.428 193.527 73.428 C 194.037 77.055 193.794 80.562 192.576 83.97 C 192.465 84.285 192.27 84.843 192.27 84.843 C 192.27 84.843 195.963 90.036 197.631 92.355 C 195.744 92.355 192.063 92.355 192.063 92.355 C 192.063 92.355 190.164 89.79 189.423 88.734 C 189.042 89.037 188.697 89.31 188.355 89.58 C 186.036 91.434 183.471 92.526 180.423 92.4 C 180.423 92.4 175.497 92.4 172.956 92.4 L 172.956 87.291 C 172.956 87.291 176.445 87.309 178.188 87.288 C 180.396 87.261 182.577 87.099 184.674 86.274 C 187.914 84.999 189.837 82.095 189.666 78.474 C 184.347 78.474 179.022 78.474 173.628 78.474 Z" style="fill: rgb(255, 255, 255);"/>
    <rect x="476.28" y="37.575" width="8.835" height="28.665" style="fill: rgb(255, 255, 255);"/>
    <path d="M 264.6 92.328 L 264.6 87.183 L 274.884 87.183 C 279.072 87.396 282.357 84.744 282.249 79.575 C 282.243 79.245 282.201 78.915 282.168 78.504 C 275.907 78.504 269.676 78.504 263.355 78.504 C 263.355 76.836 263.355 75.255 263.355 73.629 C 270.927 73.629 286.11 73.629 286.11 73.629 L 286.11 82.833 C 286.089 83.706 285.813 84.612 285.504 85.443 C 283.959 89.565 280.83 91.968 276.579 92.331 L 264.6 92.328 L 264.6 92.328 Z" style="fill: rgb(255, 255, 255);"/>
    <path d="M 288.03 82.35 C 288.03 80.805 288.03 79.365 288.03 77.913 C 294.708 77.913 308.058 77.913 308.058 77.913 L 308.058 84.438 C 308.058 87.045 306.225 88.173 298.809 88.173 C 298.809 88.173 298.743 89.34 298.509 89.667 C 297.726 91.608 296.208 92.409 293.997 92.409 L 289.122 92.409 C 289.122 90.888 289.122 89.43 289.122 87.843 C 290.718 87.843 292.311 87.843 293.904 87.843 C 295.497 87.843 295.908 87.492 296.169 85.893 C 296.247 85.413 296.304 84.93 296.388 84.36 C 298.443 84.36 300.492 84.369 302.541 84.357 C 303.93 84.351 304.347 83.913 304.404 82.353 C 298.965 82.35 293.526 82.35 288.03 82.35 Z" style="fill: rgb(255, 255, 255);"/>
    <path d="M 386.427 73.809 L 386.427 84.33 C 385.575 90.198 380.28 92.436 376.389 92.316 L 362.655 92.316 L 362.655 87.147 L 376.782 87.147 C 379.689 87.294 382.644 84.576 382.599 81.177 C 382.572 79.047 382.596 76.914 382.596 74.781 C 382.596 74.487 382.596 74.187 382.596 73.809 C 383.94 73.809 385.221 73.809 386.427 73.809 Z" style="fill: rgb(255, 255, 255);"/>
    <path d="M 227.073 73.413 C 228.555 73.413 229.926 73.413 231.429 73.413 C 231.429 75.483 231.429 77.523 231.429 79.566 C 231.429 79.977 231.453 80.391 231.426 80.799 C 231.111 85.647 234.504 87.072 237.666 87.072 C 238.074 87.072 238.482 87.072 238.947 87.072 C 238.947 88.818 238.947 90.522 238.947 92.223 C 231.942 92.628 227.367 89.508 227.091 82.626 C 226.98 79.941 227.07 77.244 227.07 74.553 C 227.073 74.187 227.073 73.821 227.073 73.413 Z" style="fill: rgb(255, 255, 255);"/>
    <polygon points="333.633 86.433 310.131 83.463 310.131 78.909 333.633 81.717" style="fill: rgb(255, 255, 255);"/>
    <polygon points="333.633 80.238 310.131 77.271 310.131 72.714 333.633 75.525" style="fill: rgb(255, 255, 255);"/>
    <path d="M 333.651 88.038 C 333.651 89.679 333.651 91.161 333.651 92.736 C 325.791 91.743 317.988 90.759 310.116 89.766 C 310.116 88.377 310.116 86.703 310.116 85.143 C 317.934 86.001 325.764 87.171 333.651 88.038 Z" style="fill: rgb(255, 255, 255);"/>
    <path d="M 213.351 92.184 C 213.351 90.387 213.351 88.725 213.351 87.06 C 214.38 86.982 215.385 86.976 216.369 86.823 C 219.237 86.37 220.908 84.381 220.917 81.483 C 220.929 78.909 220.92 76.332 220.92 73.671 C 222.366 73.671 223.761 73.671 225.297 73.671 C 225.297 75.777 225.327 77.895 225.297 80.013 C 225.276 81.429 225.345 82.878 225.069 84.252 C 224.094 89.109 221.133 91.596 216.045 92.028 C 215.166 92.106 214.281 92.133 213.351 92.184 Z" style="fill: rgb(255, 255, 255);"/>
    <path d="M 213.702 80.484 C 213.702 82.104 213.702 83.664 213.702 85.266 C 207.69 85.266 201.726 85.266 195.702 85.266 C 195.702 83.667 195.702 82.113 195.702 80.484 C 201.687 80.484 207.648 80.484 213.702 80.484 Z" style="fill: rgb(255, 255, 255);"/>
    <path d="M 239.166 80.307 C 245.223 80.307 251.181 80.307 257.184 80.307 C 257.184 81.888 257.184 83.403 257.184 85.008 C 251.184 85.008 245.205 85.008 239.166 85.008 C 239.166 83.469 239.166 81.915 239.166 80.307 Z" style="fill: rgb(255, 255, 255);"/>
    <path d="M 376.896 73.65 C 376.896 75.27 376.896 77.013 376.896 78.6 C 372.153 78.6 367.449 78.6 362.673 78.6 C 362.673 77.055 362.673 75.288 362.673 73.65 C 367.359 73.65 372.078 73.65 376.896 73.65 Z" style="fill: rgb(255, 255, 255);"/>
    <path d="M 239.367 76.659 C 239.364 78.597 237.798 80.154 235.875 80.133 C 234.009 80.109 232.464 78.576 232.434 76.704 C 232.401 74.787 233.958 73.203 235.884 73.194 C 237.828 73.188 239.37 74.721 239.367 76.659 Z M 237.258 76.614 C 237.231 75.825 236.529 75.141 235.791 75.144 C 235.011 75.15 234.279 75.927 234.372 76.71 C 234.474 77.583 235.029 78.093 235.875 78.06 C 236.739 78.024 237.177 77.424 237.258 76.614 Z" style="fill: rgb(255, 255, 255);"/>
    <path id="path2842" d="M 68.439 68.859 C 68.439 78.309 53.121 85.971 34.221 85.971 C 15.324 85.971 0 78.312 0 68.862 C 0 68.862 0 68.862 0 68.859 C 0 59.412 15.318 51.75 34.215 51.75 C 53.112 51.75 68.436 59.409 68.436 68.856 C 68.439 68.859 68.439 68.859 68.439 68.859 Z" style="fill: rgb(255, 255, 255);"/>
    <path id="path3624" d="M 127.368 95.898 C 127.371 105.345 112.053 113.007 93.156 113.007 C 74.256 113.007 58.935 105.348 58.932 95.901 C 58.932 95.898 58.932 95.898 58.932 95.898 C 58.929 86.448 74.25 78.789 93.147 78.789 C 112.047 78.789 127.365 86.445 127.368 95.895 C 127.368 95.898 127.368 95.898 127.368 95.898 Z" style="fill: rgb(255, 255, 255);"/>
    <path id="path3644" d="M 69.696 0 C 52.446 0 38.43 13.785 38.022 30.951 C 38.739 30.9 39.453 30.87 40.179 30.87 C 57.684 30.87 71.874 45.075 71.874 62.595 C 71.874 62.856 71.862 63.111 71.856 63.369 C 88.356 62.262 101.388 48.522 101.388 31.725 C 101.388 14.205 87.201 0 69.696 0 L 69.696 0 Z" style="fill: rgb(255, 255, 255);"/>
    <path id="path3897" d="M 129.693 27.789 C 112.194 27.789 98.01 41.982 98.01 59.493 C 98.01 59.883 98.016 60.276 98.031 60.66 C 98.451 60.645 98.868 60.624 99.297 60.624 C 116.4 60.624 130.341 74.193 130.962 91.158 C 147.876 90.495 161.376 76.581 161.376 59.496 C 161.379 41.982 147.192 27.789 129.693 27.789 L 129.693 27.789 Z" style="fill: rgb(255, 255, 255);"/>
  </g>
</svg>

<svg xmlns="http://www.w3.org/2000/svg" viewBox="0 0 264 50"><path d="M438.72 66.22h-8.47V37.57h31.2c5.38 0 9.6 3.82 9.74 9.22v19.43h-8v-17.8c0-2.66-1.56-4.49-4.18-4.73-1.45-.13-2.9-.02-4.47-.02v22.55h-8.37V43.51h-7.45zm128.81 0h-8.47V37.57h31.19c5.4 0 9.6 3.82 9.75 9.22v19.43h-8v-17.8c0-2.66-1.56-4.49-4.19-4.73-1.44-.13-2.9-.02-4.46-.02v22.55h-8.37V43.51h-7.45zM336.17 55.3l8.29 10.92h-9.52l-7.28-10.62h-8.1v10.62h-8.35V37.57h23.09a9.17 9.17 0 0 1 9.01 11.14c-.66 3.2-2.7 5.15-5.74 6.17-.42.14-.84.25-1.4.41m-16.6-4.84h11.01c.58-.01 1.18-.26 1.72-.5 1.21-.5 2.05-1.34 2.06-2.78 0-1.52-.56-2.73-2.03-3.29a8 8 0 0 0-2.6-.52h-10.16zM425.5 66.21h-21.26a17 17 0 0 1-4.72-.78c-3.93-1.23-5.98-4.33-5.75-8.33.24-4.1 2.82-7.24 6.7-8.07q1.38-.3 2.79-.3h13.57c.37 0-.37 0 0 0a5.83 5.83 0 0 0-5.93-5.66h-14.84v-5.5h17.36c6.67 0 11.88 5 12.09 11.64zm-8.4-12.09h-10.41c-2.21 0-3.7 1.32-3.75 3.3-.02 1.9 1.42 3.17 3.66 3.17h10.5zM174.71 66.21v-5.62h18.74q2.6-.01 3.16-2.56c.27-1.26-.52-2.54-2.03-3.1a7 7 0 0 0-2.18-.4h-11.55c-4.72-.07-7.47-2.88-7.9-7.87-.32-3.88 2.54-8.31 6.4-9.08h24.66v5.77h-17.69q-.77 0-1.55.14c-1.3.24-2.26 1.04-2.49 2.28s.31 2.37 1.34 3.14c.31.24.82.36 1.24.36h12.46c3.08.09 5.98.88 7.55 3.91 2.74 5.3.63 12.91-7.43 13.03zm362.71-29.29c3.2.1 6.3.47 9.22 1.81 4.05 1.86 7.07 4.8 7.93 9.25 1.08 5.6.1 10.84-4.4 14.84-2.55 2.28-5.77 3.28-9.07 3.84-5.12.89-10.02.06-14.67-2.29-4.35-2.19-6.17-5.98-6.66-10.58-.25-2.32-.2-4.63.52-6.88 1.7-5.3 5.65-8 10.81-9.16 2.06-.47 3.25-.76 6.32-.83m9.32 14.97-.07-1.56c-.24-3.91-2.54-6.86-6.12-7.8-2.1-.55-4.23-.5-6.33-.05a7.4 7.4 0 0 0-5.9 5.48 16 16 0 0 0-.3 7.22 6.4 6.4 0 0 0 4.86 5.44c1.62.45 3.38.62 5.07.58 5.75-.14 8.93-3.58 8.8-9.3M306.7 49.06v5.45h-19.88c.06 3.43 2.48 5.88 5.76 5.88h13.97v5.8h-16.07c-7.99-.36-12.85-6-12.59-13.4.09-2.44.25-4.84 1.16-7.14a12.5 12.5 0 0 1 11.8-8.07h15.85v5.79s-10.84-.03-13.46-.02a6.4 6.4 0 0 0-6.27 5.71zm-75.58 11.3V37.58h8.17V66.2l-21.5.01a8 8 0 0 1-6.46-3.03c-1.58-1.92-2.55-3.99-2.48-6.63.15-5.72.04-18.98.04-18.98h8.2l-.04 18.3c-.06 2.7 1.44 4.26 3.92 4.48zm21.04-3.82v9.67h-7.97V37.58h21.74c3.85-.11 7.71 2.76 8.86 7.02a9.28 9.28 0 0 1-9.15 11.93q-6.17.02-12.34 0zm.27-5.58h11.02c.44 0 .93-.28 1.32-.55 1.2-.8 2.04-3.02 1.65-4.24-.6-1.9-1.81-2.82-3.81-2.82h-10.18zm139.1-13.38v5.49h-13.98a7.2 7.2 0 0 0-5.79 3.14 5 5 0 0 0-.83 2.66h20.25v6.06h-20.33v11.3h-8.25V49.29c0-6.12 4.64-11.51 10.78-11.71zm125.7 23.02v5.62h-15.1c-6.27 0-11.03-3.68-12.55-9.77-1.2-4.76-.64-9.56 2.05-13.7a10.9 10.9 0 0 1 9.64-5.17h16.13v5.66h-13.7c-2.68 0-4.4 1.24-5.3 3.78a14.7 14.7 0 0 0-.24 9.28c.9 2.8 3.04 4.3 5.97 4.3zM335.89 92.32v-5.17h19.91V78.6h-19.55v-4.95h23.86v18.67zM173.63 78.47v-5.04h19.9a22 22 0 0 1-1.26 11.41l5.36 7.52h-5.57s-1.9-2.57-2.64-3.63l-1.06.85c-2.32 1.85-4.89 2.95-7.94 2.82h-7.46v-5.1l5.23-.01c2.2-.03 4.39-.2 6.48-1.02a7.7 7.7 0 0 0 5-7.8zm302.65-40.89h8.84v28.66h-8.84zM264.6 92.33v-5.15h10.28c4.2.22 7.48-2.44 7.37-7.6 0-.33-.05-.66-.08-1.08h-18.81v-4.87h22.75v9.2a8 8 0 0 1-.6 2.61c-1.55 4.13-4.68 6.53-8.93 6.9zm23.43-9.98v-4.44h20.03v6.53c0 2.6-1.83 3.73-9.25 3.73 0 0-.07 1.17-.3 1.5-.78 1.94-2.3 2.74-4.51 2.74h-4.88v-4.57h4.78c1.6 0 2-.35 2.27-1.95.08-.48.13-.96.22-1.53h6.15c1.39 0 1.8-.45 1.86-2zm98.4-8.55v10.53c-.86 5.87-6.15 8.1-10.04 7.99h-13.74v-5.17h14.13c2.9.14 5.86-2.57 5.82-5.97-.03-2.13 0-4.27 0-6.4v-.97zm-159.36-.39h4.36v6.16q.02.6 0 1.23c-.32 4.85 3.07 6.27 6.24 6.27h1.28v5.15c-7 .4-11.58-2.71-11.86-9.6-.11-2.68-.02-5.38-.02-8.07zm106.56 13.02-23.5-2.97v-4.55l23.5 2.81zm0-6.19-23.5-2.97v-4.56l23.5 2.82zm.02 7.8v4.7l-23.53-2.97v-4.63c7.81.86 15.64 2.03 23.53 2.9m-120.3 4.14v-5.12c1.03-.08 2.03-.08 3.02-.24 2.87-.45 4.54-2.44 4.55-5.34v-7.8h4.38c0 2.1.03 4.21 0 6.33-.02 1.42.04 2.87-.23 4.24-.98 4.86-3.94 7.35-9.03 7.78-.87.08-1.76.1-2.69.15" style="fill:#fff" transform="scale(.44 .44245)"/><path d="M213.7 80.48v4.79h-18v-4.79zm25.47-.18h18.01V85h-18.01zm137.73-6.65v4.95h-14.23v-4.95zm-137.53 3.01a3.46 3.46 0 1 1-3.49-3.47 3.44 3.44 0 0 1 3.49 3.47m-2.11-.05c-.03-.78-.73-1.47-1.47-1.47-.78.01-1.51.79-1.42 1.57.1.87.66 1.38 1.5 1.35.87-.04 1.3-.64 1.39-1.45M68.44 68.86c0 9.45-15.32 17.11-34.22 17.11S0 78.31 0 68.87v-.01c0-9.45 15.32-17.11 34.22-17.11s34.22 7.66 34.22 17.1m58.93 27.05c0 9.44-15.32 17.1-34.21 17.1s-34.22-7.65-34.23-17.1 15.32-17.11 34.22-17.11 34.21 7.65 34.22 17.1M69.7 0a31.7 31.7 0 0 0-31.68 30.95q1.07-.08 2.16-.08c17.5 0 31.7 14.2 31.7 31.73l-.02.77a31.7 31.7 0 0 0 29.53-31.64A31.7 31.7 0 0 0 69.69 0m60.01 27.79a31.7 31.7 0 0 0-31.67 32.87q.63-.03 1.27-.04a31.7 31.7 0 0 1 31.66 30.54 31.7 31.7 0 0 0-1.27-63.37" style="fill:#fff" transform="scale(.44 .44245)"/></svg>
